packages/core/src/svgs/tokens/branded/TKX.svg

<svg width="24" height="24" viewBox="0 0 24 24" fill="none" xmlns="http://www.w3.org/2000/svg">
<path fill-rule="evenodd" clip-rule="evenodd" d="M5.51315 15.9582C4.97533 15.1429 4.63302 14.2142 4.51286 13.2449C4.51286 13.2449 6.63224 13.2262 7.0011 13.2449V10.7441H2.09962C2.06212 10.7441 2.04336 10.7441 2.03711 10.7817C1.99959 11.2944 1.99335 11.7695 2.00585 12.2071C2.07191 14.5581 2.95808 16.8117 4.51089 18.5782C6.0637 20.3444 8.18535 21.512 10.5084 21.8788C12.8192 22.2276 15.1791 21.7548 17.1771 20.5427C19.1752 19.3306 20.6848 17.4561 21.443 15.2456C21.7869 14.264 21.9743 13.1762 21.9994 11.9883C22.0032 11.7189 21.9885 11.4493 21.9557 11.1817C21.834 9.81691 21.435 8.49119 20.7831 7.2859C20.1312 6.08062 19.2399 5.02116 18.164 4.17243C17.0882 3.3237 15.8504 2.70359 14.5264 2.35007C13.2026 1.99656 11.8204 1.9171 10.4646 2.11656C7.02612 2.64798 4.0252 5.01119 2.75607 8.24967H5.3381C6.14622 6.88848 7.34717 5.80356 8.78319 5.13742C10.2192 4.4713 11.8232 4.25512 13.3843 4.5173C14.4915 4.69547 15.5411 5.13245 16.4478 5.79267C16.454 5.79715 16.4586 5.80385 16.4602 5.81143V5.82393L16.454 5.83644L12.0026 10.2627C11.9985 10.2668 11.9935 10.27 11.9883 10.2722C11.9829 10.2742 11.9772 10.2754 11.9714 10.2753C11.9655 10.2754 11.9598 10.2742 11.9544 10.2722C11.949 10.27 11.9442 10.2668 11.9401 10.2627L10.0646 8.38096L10.0615 8.37619L10.0567 8.37323L10.051 8.37271L10.0458 8.3747L8.35152 10.0627C8.34714 10.0666 8.34373 10.0715 8.34156 10.0769C8.33938 10.0823 8.33852 10.0881 8.339 10.0939C8.339 10.1002 8.33902 10.1127 8.35152 10.119L10.2208 11.9757L10.2334 12.0132C10.2334 12.0258 10.2334 12.0383 10.2208 12.0446L8.34526 13.9201C8.33276 13.9264 8.33276 13.9388 8.34526 13.9514L9.98948 15.6081C9.99371 15.6122 9.99852 15.6154 10.0039 15.6176C10.0093 15.6196 10.015 15.6208 10.0208 15.6206C10.0275 15.6217 10.0346 15.6211 10.041 15.6189C10.0475 15.6167 10.0535 15.6131 10.0583 15.6081L11.9339 13.7325C11.9385 13.7298 11.9439 13.7283 11.9495 13.7283C11.955 13.7283 11.9604 13.7298 11.9651 13.7325H11.9714L16.3165 18.0651C16.323 18.0709 16.3284 18.0782 16.3321 18.0863C16.3357 18.0944 16.3376 18.1032 16.3376 18.1121C16.3376 18.1208 16.3357 18.1297 16.3321 18.1378C16.3284 18.1458 16.323 18.1531 16.3165 18.1589C14.9422 19.1164 13.3024 19.6193 11.6275 19.5968C10.202 19.5468 8.88918 19.128 7.68881 18.3214C7.26289 18.0426 6.87603 17.7084 6.53847 17.3274C6.16582 16.895 5.82326 16.4376 5.51315 15.9582ZM18.1795 16.4209C19.2932 14.9149 19.7958 13.0431 19.5862 11.1817C19.4552 9.86869 18.9663 8.61664 18.1732 7.56196C18.1612 7.55709 18.1478 7.55709 18.1357 7.56196C18.1291 7.56278 18.1227 7.5649 18.117 7.56821L13.7344 11.9571C13.7255 11.9663 13.7207 11.9787 13.7207 11.9914C13.7207 12.0042 13.7255 12.0166 13.7344 12.0258L18.1294 16.4272C18.1348 16.4311 18.1414 16.4333 18.1483 16.4333C18.155 16.4333 18.1615 16.4311 18.1669 16.4272H18.1795V16.4209Z" fill="#F26829"/>
</svg>

<svg xmlns="http://www.w3.org/2000/svg" width="24" height="24" fill="none" viewBox="0 0 24 24">
    <path fill="#F26829" fill-rule="evenodd" d="M5.513 15.958a6.35 6.35 0 0 1-1-2.713s2.12-.019 2.488 0v-2.5H2.1c-.038 0-.057 0-.063.037a14 14 0 0 0-.031 1.425 10.08 10.08 0 0 0 8.502 9.672 9.984 9.984 0 0 0 10.935-6.633q.517-1.474.556-3.258.006-.405-.043-.806a10.07 10.07 0 0 0-7.43-8.832 10.1 10.1 0 0 0-4.061-.233c-3.439.531-6.44 2.894-7.709 6.133h2.582a7.85 7.85 0 0 1 8.046-3.733 7.1 7.1 0 0 1 3.064 1.276q.009.006.012.018v.013l-.006.012-4.451 4.427-.015.01a.05.05 0 0 1-.048-.01L10.065 8.38l-.003-.005-.005-.003h-.006l-.005.002-1.694 1.688a.04.04 0 0 0-.013.03c0 .007 0 .02.013.026l1.869 1.857.012.037c0 .013 0 .025-.012.032L8.345 13.92q-.018.011 0 .031l1.644 1.657.015.01.017.003.02-.002a.04.04 0 0 0 .017-.01l1.876-1.876a.03.03 0 0 1 .031 0h.006l4.346 4.332a.064.064 0 0 1 .016.073l-.017.02a8 8 0 0 1-4.688 1.439 7.4 7.4 0 0 1-3.94-1.276 5.7 5.7 0 0 1-1.15-.994q-.559-.65-1.025-1.369m12.667.463a7.42 7.42 0 0 0 1.406-5.24 7.2 7.2 0 0 0-1.413-3.619.05.05 0 0 0-.037 0l-.019.006-4.383 4.39a.05.05 0 0 0-.013.033.05.05 0 0 0 .013.035l4.395 4.401a.03.03 0 0 0 .038 0h.012z" clip-rule="evenodd"/>
</svg>
